X:1
T:[ID 7-149]
T:[ID 7-149]
T:Bezeichnung standardisiert: Allegro Allegro
T:Urheber unbekannt Datum in der hier transkribierten schriftlichen Quelle: 1776 - 1791
C:Urheber unbekannt
C:Datum in der hier transkribierten schriftlichen Quelle: 1776 - 1791
%%score 1 2
L:1/8
M:2/4
K:D
V:1 treble 
V:2 treble nm="Secondo"
V:1
 d2 A2 | f2 d2 | ab/c'/ d'a | Tg2 f2 | bgfe | afed | g2 f2 |{f} e4 :: ag/a/ ba | gf{f} g2 | %10
 gf/g/ ag | fe{e} f2 | d2 A2 | f2 d2 | ab/c'/ d'c' | d'c'/b/ ag | f2 Te2 | d4 :| %18
V:2
 !fermata!z4 | d2 A2 | fg/e/ ff |{f} e2 d2 | gbag | fagf | e2 d2 |{d} c4 :: fe/f/ gf | e^d e2 | %10
 ed/e/ fe | dc{c} d2 | F2 A2 | d2 A2 | fg/e/ fe | fa/g/ fe | d2 AG | F4 :| %18

